X:181
T:Sur la Loire ils s'en vont
C:trad.
A:Bourbonnais
O:France
Z:S. Piron
M:6/8
L:1/8
Q:1/4=120
K:F
F|G2GF2E|F3F2F|G2FB2A|1G3G2:|2G3|
|:G>AB c3|B>AG F3|A>GF E2F|1G6:|2G3G2||
W:
W:Y'a pas de gens plus drles
W:Ce sont les mariniers
W:En voulez-vous, dites mesdames
W:De ces bons compagnons
W:Prenant bien garde  la balise
W:Sur la Loire ils s'en vont
W:
W:Ils s'en vont sur la Loire
W:Et font rien que chanter,
W:En voulez-vous...
W:
W:Une fille qui les regarde
W:Belle voulez-vous monter
W:
W:Quand elle fut sur la Loire
W:La mine lui a chang
W:
W:Je r'grette mon pre ma mre
W:Que j'ai abandonns
W:
W:Ne r'grettez rien la belle
W:Nous vons vous dbarquer
W:
W:Ouvrez mon pre, ma mre
W:Je viens de m'promener
W:
W:Tout le long de ces les
W:Avec les mariniers
